symbols/web/drive_file_move_rtl/materialsymbolsoutlined/drive_file_move_rtl_wght100gradN25fill1_24px.svg

<svg xmlns="http://www.w3.org/2000/svg" height="24" width="24"><path d="m12 16.025.45-.475-2.25-2.25h4.85v-.625H10.2l2.25-2.25L12 9.95 8.975 13ZM4.85 18.6q-.6 0-1.012-.412-.413-.413-.413-1.013V7.9q0-.6.413-1.025.412-.425 1.037-.425h6.2L12 7.4h7.15q.6 0 1.013.412.412.413.412 1.013v8.35q0 .6-.412 1.013-.413.412-1.013.412Z"/></svg>

<svg xmlns="http://www.w3.org/2000/svg" height="24" width="24"><path d="M12 16.025 12.45 15.55 10.2 13.3H15.05V12.675H10.2L12.45 10.425L12 9.95L8.975 13ZM4.85 18.6Q4.25 18.6 3.838 18.188Q3.425 17.775 3.425 17.175V7.9Q3.425 7.3 3.838 6.875Q4.25 6.45 4.875 6.45H11.075L12 7.4H19.15Q19.75 7.4 20.163 7.812Q20.575 8.225 20.575 8.825V17.175Q20.575 17.775 20.163 18.188Q19.75 18.6 19.15 18.6Z"/></svg>
